resources/svg/aed.svg

<svg viewBox="0 0 24 24"><path fill="none" stroke="currentColor" stroke-width="2" d="M2 8.4C2 4 5 3 7 3s4 2 5 3.5C13 5 15 3 17 3s5 1 5 5.4C22 15 12 21 12 21S2 15 2 8.4zM12 6c-.5-.5-2 4-2 4h2v2.5L14 9h-2s1-6 5-6c-4 0-5 3-5 3z"/></svg>

<svg xmlns="http://www.w3.org/2000/svg" viewBox="0 0 24 24" fill="currentColor"><path fill="none" stroke="currentColor" stroke-width="2" d="M2,8.4 C2,4 5,3 7,3 C9,3 11,5 12,6.5 C13,5 15,3 17,3 C19,3 22,4 22,8.4 C22,15 12,21 12,21 C12,21 2,15 2,8.4 Z M12,6 C11.5,5.5 10,10 10,10 L12,10 L12,12.5 L14,9 L12,9 C12,9 13,3 17,3 C13,3 12,6 12,6 Z"/></svg>
